!! 00010] TT[TB
!! Eigene Aufnahme
!!!OTL: Wenshun de guniang (?) The flexible yellow-bay horse (M.S 155!)
!!!ARE: Neimeng
!! Ethnic Group: Menggu
!! MM, S. 153
!!!SCT: C0590
!!!YEM: Copyright 1995, estate of Helmut Schaffrath.
**kern
*ICvox
*Ivox
!! Mixed meters:  3/4; 4/4
*M3/4
*k[]
*C:
{4e
2g
4c
=1
8e
8d
2c
4d
=2
4e
2d
4g}
=3
{8E
16G
16A
2c
=4
8A
8G
4.E
16G
16A
=5
16c
16A
4.G
8G
8r}
=6
{4e
2g
=7
*M4/4
8e
8d
2c
4d
=8
4e
2d
4g}
=9
*M3/4
{8E
16G
16A
2c
=10
8A
8G
4.E
16G
16A
=11
16c
16A
4.G
8g
8r}
==
!!!AGN: NN
!! Saenger: Chao Lun Batou, der das Buch nur zum Nachschlagen
!!    benutzte und ansonsten auswendig sang. Da er aus dem Osten der
!!    Neimeng kommt, kennt er nicht so viele Lieder des Westens.
!!    Alle Lieder wurden mit erkaelteter, halber Stimme in meinem
!!    Zimmer gesungen. FOTO VORHANDEN (DIAS)  31.3.87
!!    Vereinzelt Verzierungen. VARIANTE ODER ANDERES LIED?
!!!ONB: ESAC (Essen Associative Code) Database: CHINA
!!!AMT: irregular
!!!AIN: vox
!!!EED: Helmut Schaffrath
!!!EEV: 1.0
*-
